X:1
T:Calliope House
R:jig
M:6/8
L:1/8
K:D
|:~a2a faa|eaa def|~g2g fgf|~e2e edB|
|ABA ~A2F|A2B d2e|1 faf fed|~e2e efg:|2 faf efe|d2d dAB|]
|:dAA fAA|eAA fed|Bee ~e2d|efd ~B2B|
|ABA ~A2F|A2B d2e|1 faf fed|~e2e edB:|2 faf efe|d2d efg|]